svgs/sharp-light/cloud-question.svg

<svg xmlns="http://www.w3.org/2000/svg" viewBox="0 0 640 512"><!--! Font Awesome Pro 6.6.0 by @fontawesome - https://fontawesome.com License - https://fontawesome.com/license (Commercial License) Copyright 2024 Fonticons, Inc. --><path d="M544 241.1l0-9.1c0-57.4-46.6-104-104-104c-13.4 0-26.2 2.5-37.9 7.1l-24.3 9.5-14.2-22C340.8 87.3 301.1 64 256 64c-70.7 0-128 57.3-128 128l0 8.2 0 22.6-21.3 7.5C63.1 245.8 32 287.3 32 336l0 112 112 0 368 0 96 0 0-96c0-35.5-19.2-66.5-48-83.2l-16-9.2 0-18.5zM0 336c0-62.7 40.1-116 96-135.8l0-8.2c0-88.4 71.6-160 160-160c56.4 0 106 29.2 134.5 73.3c15.3-6 32-9.3 49.5-9.3c75.1 0 136 60.9 136 136l0 9.1c38.3 22.1 64 63.5 64 110.9l0 96 0 32-32 0-96 0-368 0L32 480 0 480l0-32L0 336zM232 232c0-30.9 25.1-56 56-56l56 0c35.5 0 64 29 64 64.3c0 24-13.4 46.2-34.9 57.2L336 316.3l0 3.7 0 16-32 0 0-16 0-13.5 0-9.8 8.7-4.5 45.8-23.4c10.7-5.4 17.5-16.6 17.5-28.7c0-17.8-14.4-32.3-32-32.3l-56 0c-13.3 0-24 10.7-24 24l0 8-32 0 0-8zm64 136l48 0 0 48-48 0 0-48z"/></svg>

<svg xmlns="http://www.w3.org/2000/svg" viewBox="0 0 640 512"><!--! Font Awesome Pro 6.4.2 by @fontawesome - https://fontawesome.com License - https://fontawesome.com/license (Commercial License) Copyright 2023 Fonticons, Inc. --><path d="M544 241.1V232c0-57.4-46.6-104-104-104c-13.4 0-26.2 2.5-37.9 7.1l-24.3 9.5-14.2-22C340.8 87.3 301.1 64 256 64c-70.7 0-128 57.3-128 128v8.2 22.6l-21.3 7.5C63.1 245.8 32 287.3 32 336V448H144 512h96V352c0-35.5-19.2-66.5-48-83.2l-16-9.2V241.1zM0 336c0-62.7 40.1-116 96-135.8V192c0-88.4 71.6-160 160-160c56.4 0 106 29.2 134.5 73.3c15.3-6 32-9.3 49.5-9.3c75.1 0 136 60.9 136 136v9.1c38.3 22.1 64 63.5 64 110.9v96 32H608 512 144 32 0V448 336zM232 232c0-30.9 25.1-56 56-56h56c35.5 0 64 29 64 64.3c0 24-13.4 46.2-34.9 57.2L336 316.3V320v16H304V320 306.5v-9.8l8.7-4.5 45.8-23.4c10.7-5.4 17.5-16.6 17.5-28.7c0-17.8-14.4-32.3-32-32.3H288c-13.3 0-24 10.7-24 24v8H232v-8zm64 136h48v48H296V368z"/></svg>
